images/cambridge.svg

<svg width="136" height="68" viewBox="0 0 136 68" fill="none" xmlns="http://www.w3.org/2000/svg">
<path fill-rule="evenodd" clip-rule="evenodd" d="M41.0132 29.329L45.949 24.3935C44.0539 22.3639 41.5919 20.9514 38.8832 20.3398C36.1745 19.7282 33.3445 19.9457 30.7611 20.9642C28.1777 21.9826 25.9606 23.7548 24.3981 26.0503C22.8356 28.3458 22 31.0583 22 33.835C22 36.6117 22.8356 39.3242 24.3981 41.6197C25.9606 43.9152 28.1777 45.6874 30.7611 46.7058C33.3445 47.7243 36.1745 47.9418 38.8832 47.3302C41.5919 46.7186 44.0539 45.3061 45.949 43.2765L41.0132 38.3424C39.5631 40.0075 37.935 40.7269 35.7171 40.6799C34.9375 40.6651 34.1714 40.4737 33.4764 40.1201C32.7556 39.754 32.7314 38.6743 33.5818 38.5632C34.3666 38.4566 35.1235 38.1998 35.8111 37.8069C36.2755 38.0804 37.3994 38.4293 38.0404 38.5675C38.7732 38.2738 39.429 37.8163 39.9577 37.23C39.2127 37.5149 37.2327 37.146 36.5319 36.7657V35.1988L38.0176 33.7374H34.3952V30.6693C34.3959 30.4092 34.2999 30.158 34.1259 29.9646C33.952 29.7712 33.7124 29.6492 33.4536 29.6224L30.6688 29.3261C31.312 28.5859 32.1065 27.9923 32.9988 27.5856C33.8911 27.1788 34.8604 26.9683 35.841 26.9683C36.8216 26.9683 37.7909 27.1788 38.6832 27.5856C39.5755 27.9923 40.37 28.5859 41.0132 29.3261L38.066 32.2732V30.6351C38.065 30.3795 38.1576 30.1323 38.3264 29.9403C38.4951 29.7482 38.7283 29.6245 38.9819 29.5925L41.0132 29.3261V29.329ZM32.4095 34.4567H34.3382L35.0946 35.2003C35.0946 35.5877 35.0946 36.2073 35.0946 36.7671C34.3909 37.1488 32.3682 37.5163 31.6232 37.2243C30.7685 36.8725 30.0962 34.3442 32.4109 34.461L32.4095 34.4567ZM32.7912 33.1933C31.5591 33.1933 30.1175 32.1464 30.1175 30.8374L32.7927 31.1223L32.7912 33.1933Z" fill="url(#paint0_linear_5_908)"/>
<path fill-rule="evenodd" clip-rule="evenodd" d="M54.0755 34.6178C54.697 34.6257 55.3115 34.4866 55.8689 34.2119C56.3772 33.9746 56.8208 33.6184 57.1623 33.1735L55.8689 31.9186C55.3874 32.4755 54.8405 32.749 54.208 32.749C53.9854 32.754 53.7641 32.7131 53.558 32.6288C53.3519 32.5445 53.1653 32.4186 53.01 32.259C52.7006 31.9236 52.5288 31.484 52.5288 31.0277C52.5288 30.5713 52.7006 30.1317 53.01 29.7963C53.1662 29.6344 53.3541 29.5065 53.5619 29.4205C53.7697 29.3345 53.9931 29.2922 54.218 29.2963C54.7877 29.2963 55.3404 29.5598 55.8404 30.0883L57.0669 28.7579C56.4159 27.9375 55.3305 27.4176 54.0855 27.4176C53.6107 27.4058 53.1384 27.4909 52.6976 27.6678C52.2567 27.8446 51.8566 28.1094 51.5215 28.446C50.832 29.1254 50.483 29.9943 50.483 31.0512C50.483 32.1081 50.8221 32.957 51.5015 33.6264C51.8414 33.9544 52.2432 34.2114 52.6834 34.3826C53.1235 34.5537 53.5934 34.6356 54.0655 34.6235L54.0755 34.6178ZM64.3188 34.5138L61.9129 27.5344H59.997L57.5142 34.5138H59.5255L59.8745 33.3743H61.9784L62.3089 34.5138H64.3188ZM60.346 31.6836L60.95 29.7578L61.5354 31.6836H60.346ZM67.37 34.5138V31.4984L68.9554 33.6791H69.7203L71.3058 31.4984V34.5181H73.2502V27.5386H71.7203L69.3429 30.923L66.9555 27.5443H65.4398V34.5238L67.37 34.5138ZM79.5007 30.6823C79.7865 30.5701 80.0315 30.374 80.2034 30.1196C80.3754 29.8653 80.4661 29.5648 80.4636 29.2579C80.4645 29.0289 80.4159 28.8025 80.3213 28.5941C80.2267 28.3856 80.0881 28.2 79.9152 28.05C79.5477 27.711 79.0382 27.541 78.3868 27.5401H74.9994V34.5195H78.5605C79.2315 34.5195 79.7785 34.3315 80.2029 33.9498C80.4102 33.7619 80.5741 33.5313 80.6833 33.2737C80.7925 33.0162 80.8444 32.738 80.8354 32.4585C80.8354 31.591 80.3724 30.8916 79.505 30.6936L79.5007 30.6823ZM78.0093 29.1824C78.0775 29.1774 78.1461 29.1867 78.2105 29.2097C78.275 29.2327 78.334 29.2689 78.3837 29.3159C78.4334 29.363 78.4728 29.4198 78.4993 29.4829C78.5258 29.546 78.5389 29.6139 78.5377 29.6823C78.5377 29.9473 78.3497 30.1738 77.9252 30.1738H76.9281V29.1767L78.0093 29.1824ZM76.9238 32.853V31.7135H78.1888C78.5947 31.7135 78.8112 31.967 78.8112 32.2833C78.8112 32.5995 78.6047 32.853 78.1232 32.853H76.9238ZM88.13 34.5138L86.7056 31.9941C87.5275 31.5796 87.905 30.7862 87.905 29.9088C87.9148 29.5946 87.8604 29.2817 87.745 28.9892C87.6297 28.6968 87.4558 28.431 87.2341 28.2081C86.7911 27.7651 86.1301 27.5472 85.2626 27.5472H82.2228V34.5267H84.1857V32.3388H84.7883L85.8937 34.5181L88.13 34.5138ZM85.2398 29.3277C85.3264 29.3226 85.413 29.336 85.494 29.3671C85.5749 29.3982 85.6482 29.4463 85.7091 29.5081C85.7699 29.5699 85.8168 29.6439 85.8467 29.7253C85.8766 29.8067 85.8887 29.8936 85.8823 29.98C85.8823 30.3475 85.6558 30.6395 85.1928 30.6395H84.1857V29.3277H85.2398ZM89.4434 34.5181H91.4248V27.5386H89.4448V34.5181H89.4434ZM96.0629 34.5181C97.1749 34.5181 98.0429 34.2066 98.6668 33.5837C99.2992 32.9613 99.6112 32.1123 99.6112 31.0369C99.6112 29.9615 99.2992 29.1012 98.6767 28.473C98.0543 27.8449 97.1953 27.5386 96.0814 27.5386H93.1755V34.5181H96.0629ZM95.1384 29.4316H96.1569C96.3567 29.4195 96.5564 29.4562 96.7388 29.5386C96.9213 29.621 97.0809 29.7466 97.2038 29.9045C97.454 30.2242 97.5846 30.6212 97.5728 31.027C97.5859 31.4381 97.4555 31.841 97.2038 32.1665C97.0808 32.3242 96.9212 32.4496 96.7387 32.5318C96.5563 32.6139 96.3566 32.6504 96.1569 32.6379H95.1398V29.4316H95.1384ZM104.439 34.6178C105.637 34.6178 106.704 34.1834 107.637 33.3245V30.225H104.47V31.8859H105.876V32.3003C105.602 32.5368 105.036 32.7533 104.47 32.7533C104.232 32.7663 103.995 32.7275 103.773 32.6397C103.552 32.5519 103.352 32.4172 103.188 32.2448C102.879 31.9077 102.711 31.4655 102.717 31.0084C102.711 30.7851 102.751 30.5629 102.834 30.3554C102.917 30.1478 103.041 29.9591 103.198 29.8006C103.363 29.6351 103.561 29.5054 103.779 29.4194C103.996 29.3334 104.229 29.2929 104.463 29.3006C105.013 29.303 105.544 29.4998 105.963 29.8561L107.189 28.3748C106.434 27.737 105.471 27.398 104.483 27.4218C103.397 27.4218 102.501 27.7623 101.776 28.4417C101.051 29.1211 100.701 29.98 100.701 31.0369C100.687 31.5146 100.772 31.9899 100.951 32.433C101.13 32.8762 101.398 33.2776 101.739 33.6122C102.437 34.2831 103.333 34.6221 104.429 34.6221L104.439 34.6178ZM114.342 34.5138V32.7063H111.124V31.9329H114.115V30.131H111.124V29.3562H114.36V27.5443H109.141V34.5238L114.342 34.5138Z" fill="#2C1F82"/>
<path fill-rule="evenodd" clip-rule="evenodd" d="M53.2336 40.1257V39.4349H51.8405V37.2556H51.1097V40.1257H53.2336ZM55.8304 40.1257V39.4605H54.49V39.0332H55.7321V38.3652H54.49V37.9379H55.8332V37.2655H53.7592V40.1357L55.8304 40.1257ZM58.9799 40.1257L57.9585 37.2556H57.2833L56.2349 40.1257H56.9842L57.1551 39.6015H58.0682L58.2349 40.1257H58.9799ZM57.3375 38.972L57.6224 38.1173L57.8944 38.972H57.3375ZM61.8174 40.1257L61.1949 39.0617C61.3567 38.9867 61.4928 38.8655 61.586 38.7135C61.6793 38.5615 61.7256 38.3853 61.7191 38.2071C61.7234 38.0815 61.7018 37.9564 61.6557 37.8395C61.6097 37.7227 61.5401 37.6165 61.4513 37.5276C61.3462 37.4312 61.2224 37.3574 61.0877 37.3106C60.953 37.2638 60.8101 37.2451 60.6679 37.2556H59.4713V40.1257H60.1978V39.1756H60.4827L60.9869 40.1271L61.8174 40.1257ZM60.6593 37.9208C61.0639 37.8894 61.098 38.5646 60.6322 38.5418H60.1978V37.9208H60.6593ZM64.2333 38.8124L62.9057 37.2556H62.3858V40.1257H63.098V38.5874L64.4028 40.1257H64.9512V37.2556H64.239V38.8124H64.2333ZM65.7062 40.1257H66.4369V37.2556H65.7062V40.1257ZM69.0437 38.8124L67.7189 37.2556H67.199V40.1257H67.9112V38.5874L69.2146 40.1257H69.763V37.2556H69.0508V38.8124H69.0437ZM71.8926 40.1684C72.1375 40.1698 72.3802 40.122 72.6063 40.0278C72.8324 39.9336 73.0373 39.7949 73.2088 39.62V38.378H71.8997V38.999H72.5521V39.2483C72.3708 39.3974 72.1431 39.4786 71.9083 39.4776C71.8022 39.4812 71.6965 39.4622 71.5983 39.4219C71.5001 39.3817 71.4115 39.321 71.3385 39.244C71.1963 39.0932 71.1186 38.8929 71.122 38.6857C71.1188 38.5811 71.1371 38.477 71.1759 38.3799C71.2146 38.2827 71.273 38.1946 71.3473 38.121C71.4215 38.0474 71.5102 37.9898 71.6077 37.9519C71.7052 37.9141 71.8094 37.8967 71.914 37.9008C72.1641 37.9009 72.4051 37.9949 72.5892 38.1643L73.0507 37.6245C72.739 37.3499 72.3365 37.2007 71.9211 37.2057C71.5126 37.1939 71.1162 37.3445 70.8186 37.6245C70.5402 37.9078 70.383 38.2882 70.38 38.6853C70.3771 39.0825 70.5287 39.4652 70.8029 39.7525C70.9484 39.8916 71.1203 40.0001 71.3084 40.0715C71.4966 40.143 71.6972 40.1759 71.8983 40.1684H71.8926ZM75.9537 40.1684C76.2081 40.1723 76.4596 40.1151 76.6873 40.0018C76.8952 39.9019 77.0775 39.7558 77.2201 39.5745L76.7386 39.113C76.6515 39.2262 76.5398 39.3182 76.412 39.3821C76.2842 39.446 76.1436 39.4801 76.0007 39.4819C75.8986 39.4841 75.7971 39.4655 75.7023 39.4273C75.6076 39.3891 75.5215 39.3321 75.4495 39.2597C75.377 39.1863 75.32 39.099 75.2821 39.003C75.2442 38.9071 75.226 38.8045 75.2287 38.7013C75.2253 38.5964 75.2432 38.4919 75.2811 38.394C75.319 38.2961 75.3763 38.2069 75.4495 38.1316C75.5216 38.0578 75.6082 37.9998 75.7037 37.9611C75.7993 37.9223 75.9019 37.9038 76.005 37.9065C76.1438 37.9116 76.28 37.9461 76.4045 38.0077C76.529 38.0694 76.639 38.1567 76.7272 38.264L77.1887 37.7783C77.0408 37.5955 76.853 37.4491 76.6396 37.3504C76.4262 37.2516 76.1931 37.2031 75.958 37.2086C75.7614 37.2048 75.5661 37.241 75.3839 37.315C75.2017 37.3889 75.0364 37.4991 74.898 37.6388C74.7597 37.7785 74.6511 37.9448 74.5789 38.1277C74.5067 38.3106 74.4724 38.5062 74.478 38.7027C74.4715 38.8996 74.5061 39.0957 74.5797 39.2784C74.6533 39.4611 74.7642 39.6265 74.9053 39.7639C75.0449 39.898 75.2097 40.003 75.3901 40.0729C75.5706 40.1429 75.7631 40.1763 75.9566 40.1713L75.9537 40.1684ZM79.8197 40.1257V39.4605H78.4793V39.0332H79.7228V38.3652H78.4793V37.9379H79.8226V37.2655H77.7457V40.1357L79.8197 40.1257ZM82.3495 38.8124L81.0205 37.2556H80.4963V40.1257H81.2086V38.5874L82.5134 40.1257H83.0604V37.2556H82.3481V38.8124H82.3495ZM84.3851 40.1257H85.1187V37.9549H85.9107V37.2556H83.5888V37.9549H84.3851V40.1257ZM88.516 40.1257V39.4605H87.1756V39.0332H88.4192V38.3652H87.1756V37.9379H88.516V37.2655H86.4406V40.1357L88.516 40.1257ZM91.543 40.1257L90.9205 39.0617C91.0824 38.9868 91.2186 38.8657 91.3119 38.7136C91.4051 38.5616 91.4514 38.3853 91.4447 38.2071C91.449 38.0815 91.4274 37.9564 91.3813 37.8395C91.3353 37.7227 91.2657 37.6165 91.1769 37.5276C91.0718 37.4312 90.9481 37.3574 90.8133 37.3106C90.6786 37.2638 90.5357 37.2451 90.3935 37.2556H89.1969V40.1257H89.9234V39.1756H90.2083L90.7125 40.1271L91.543 40.1257ZM90.3849 37.9208C90.7895 37.8894 90.8236 38.5646 90.3578 38.5418H89.9305V37.9208H90.3849Z" fill="#2C1F82"/>
<defs>
<linearGradient id="paint0_linear_5_908" x1="33.9208" y1="36.0278" x2="43.5439" y2="25.0012" gradientUnits="userSpaceOnUse">
<stop stop-color="#2C1F82"/>
<stop offset="1" stop-color="#00A6E8"/>
</linearGradient>
</defs>
</svg>

<svg xmlns="http://www.w3.org/2000/svg" width="136" height="68" fill="none"><path fill="url(#a)" fill-rule="evenodd" d="m41.013 29.329 4.936-4.936a13.837 13.837 0 0 0-21.55 17.227 13.835 13.835 0 0 0 21.55 1.657l-4.936-4.935c-1.45 1.666-3.078 2.385-5.296 2.338a5.157 5.157 0 0 1-2.24-.56c-.721-.366-.746-1.446.105-1.557a6.166 6.166 0 0 0 2.23-.756c.464.273 1.587.622 2.228.76a5.173 5.173 0 0 0 1.918-1.337c-.745.285-2.725-.084-3.426-.464v-1.567l1.486-1.462h-3.623V30.67a1.05 1.05 0 0 0-.941-1.047l-2.785-.296a6.851 6.851 0 0 1 10.344 0l-2.947 2.947v-1.638a1.046 1.046 0 0 1 .916-1.043l2.031-.266v.003Zm-8.603 5.128h1.928l.757.743v1.567c-.704.382-2.727.75-3.472.457-.855-.351-1.527-2.88.788-2.763l-.002-.004Zm.381-1.264c-1.232 0-2.673-1.047-2.673-2.356l2.675.285-.002 2.071Z" clip-rule="evenodd"/><path fill="#2C1F82" fill-rule="evenodd" d="M54.075 34.618a3.944 3.944 0 0 0 1.794-.406 3.494 3.494 0 0 0 1.293-1.039L55.87 31.92c-.482.556-1.029.83-1.661.83a1.62 1.62 0 0 1-1.198-.49 1.816 1.816 0 0 1 0-2.463 1.636 1.636 0 0 1 1.208-.5c.57 0 1.122.264 1.622.792l1.227-1.33c-.651-.82-1.736-1.34-2.981-1.34a3.494 3.494 0 0 0-2.564 1.028c-.69.68-1.039 1.548-1.039 2.605s.34 1.906 1.019 2.575a3.56 3.56 0 0 0 2.563.998l.01-.006Zm10.244-.104-2.406-6.98h-1.916l-2.483 6.98h2.011l.35-1.14h2.103l.33 1.14h2.01Zm-3.973-2.83.604-1.926.585 1.926h-1.189Zm7.024 2.83v-3.016l1.585 2.181h.765l1.586-2.18v3.02h1.944v-6.98h-1.53l-2.377 3.384-2.388-3.379H65.44v6.98l1.93-.01Zm12.13-3.832a1.517 1.517 0 0 0 .964-1.424 1.59 1.59 0 0 0-.549-1.208c-.367-.339-.877-.509-1.528-.51h-3.388v6.98h3.562c.67 0 1.217-.189 1.642-.57a1.928 1.928 0 0 0 .632-1.492c0-.867-.463-1.566-1.33-1.764l-.004-.012Zm-1.49-1.5a.492.492 0 0 1 .528.5c0 .265-.188.492-.613.492h-.997v-.997l1.081.005Zm-1.086 3.671v-1.14h1.265c.406 0 .622.254.622.57 0 .316-.206.57-.688.57h-1.2Zm11.206 1.66-1.424-2.519c.822-.414 1.199-1.208 1.199-2.085a2.31 2.31 0 0 0-.67-1.7c-.444-.444-1.105-.662-1.972-.662h-3.04v6.98h1.963v-2.188h.602l1.106 2.18 2.236-.005Zm-2.89-5.185a.609.609 0 0 1 .642.652c0 .367-.226.66-.69.66h-1.006v-1.312h1.054Zm4.203 5.19h1.982v-6.98h-1.98v6.98h-.002Zm6.62 0c1.112 0 1.98-.311 2.604-.934.632-.623.944-1.472.944-2.547 0-1.075-.312-1.936-.934-2.564-.623-.628-1.482-.934-2.596-.934h-2.906v6.98h2.888Zm-.925-5.086h1.019a1.232 1.232 0 0 1 1.047.473c.25.32.38.716.369 1.122a1.77 1.77 0 0 1-.37 1.14 1.23 1.23 0 0 1-1.046.47H95.14v-3.205h-.002Zm9.301 5.186c1.198 0 2.265-.435 3.198-1.294v-3.099h-3.167v1.66h1.406v.415c-.274.237-.84.453-1.406.453a1.648 1.648 0 0 1-1.282-.508 1.794 1.794 0 0 1-.471-1.237 1.67 1.67 0 0 1 1.062-1.589c.217-.086.45-.126.684-.118.55.002 1.081.199 1.5.555l1.226-1.481a4.043 4.043 0 0 0-2.706-.953c-1.086 0-1.982.34-2.707 1.02-.725.68-1.075 1.538-1.075 2.595a3.457 3.457 0 0 0 1.038 2.575c.698.671 1.594 1.01 2.69 1.01l.01-.004Zm9.903-.104v-1.808h-3.218v-.773h2.991V30.13h-2.991v-.775h3.236v-1.812h-5.219v6.98l5.201-.01ZM53.234 40.126v-.691H51.84v-2.18h-.73v2.87h2.124Zm2.596 0v-.665h-1.34v-.428h1.242v-.668H54.49v-.427h1.343v-.672H53.76v2.87l2.071-.01Zm3.15 0-1.021-2.87h-.676l-1.048 2.87h.75l.17-.524h.913l.167.524h.745Zm-1.642-1.154.284-.855.272.855h-.556Zm4.48 1.154-.623-1.064a.906.906 0 0 0 .524-.855.916.916 0 0 0-.268-.68 1.046 1.046 0 0 0-.783-.271H59.47v2.87h.727v-.95h.285l.504.951.83-.001Zm-1.159-2.205c.405-.032.439.644-.027.62h-.434v-.62h.461Zm3.574.891-1.327-1.556h-.52v2.87h.712v-1.539l1.305 1.539h.548v-2.87h-.712v1.556h-.006Zm1.473 1.314h.73v-2.87h-.73v2.87Zm3.338-1.314-1.325-1.556h-.52v2.87h.712v-1.539l1.304 1.539h.548v-2.87h-.712v1.556h-.007Zm2.849 1.356a1.829 1.829 0 0 0 1.316-.548v-1.242h-1.31v.621h.653v.25c-.181.148-.409.23-.644.229a.75.75 0 0 1-.57-.234.795.795 0 0 1-.216-.558.761.761 0 0 1 .792-.785c.25 0 .491.094.675.263l.462-.54a1.678 1.678 0 0 0-1.13-.418 1.544 1.544 0 0 0-1.102.418 1.53 1.53 0 0 0-.016 2.128 1.504 1.504 0 0 0 1.095.416h-.005Zm4.06 0c.255.004.507-.053.734-.166.208-.1.39-.246.533-.428l-.481-.461a.946.946 0 0 1-.738.369.755.755 0 0 1-.772-.78.781.781 0 0 1 .22-.57.748.748 0 0 1 .556-.225.982.982 0 0 1 .722.357l.462-.486a1.535 1.535 0 0 0-1.231-.57 1.451 1.451 0 0 0-1.48 1.495 1.416 1.416 0 0 0 .912 1.37c.18.07.373.103.567.098l-.003-.003Zm3.867-.042v-.665h-1.34v-.428h1.243v-.668h-1.244v-.427h1.344v-.672h-2.077v2.87l2.074-.01Zm2.53-1.314-1.33-1.556h-.524v2.87h.713v-1.539l1.304 1.539h.547v-2.87h-.712v1.556h.002Zm2.035 1.314h.734v-2.171h.792v-.7h-2.322v.7h.796v2.17Zm4.131 0v-.665h-1.34v-.428h1.243v-.668h-1.243v-.427h1.34v-.672h-2.075v2.87l2.075-.01Zm3.027 0-.623-1.064a.905.905 0 0 0 .525-.855.916.916 0 0 0-.268-.68 1.045 1.045 0 0 0-.784-.271h-1.196v2.87h.726v-.95h.285l.505.951.83-.001Zm-1.158-2.205c.404-.032.439.644-.027.62h-.428v-.62h.455Z" clip-rule="evenodd"/><defs><linearGradient id="a" x1="33.921" x2="43.544" y1="36.028" y2="25.001" gradientUnits="userSpaceOnUse"><stop stop-color="#2C1F82"/><stop offset="1" stop-color="#00A6E8"/></linearGradient></defs></svg>
